X: 30
T: Out On The Ocean
Z: Aberfoyle Whistler
S: https://thesession.org/tunes/108#setting52906
R: jig
M: 6/8
L: 1/8
K: Gmaj
|:~B3 BAG|BdB AEA|GED ~G3|BDB AEA|
~B3 BAG|BDB AEA|GED ~G3|1AGF G2 z:|2AGF G2 z||
~e3 edB|dee edB|ded dBA|ded dBA|
G2 A B2 d|~e3 dBA|GED ~G3|AGF G2 z|
ege edB|ege edB|ded def|gfe dBA|
G2A B2d|~e3 dBA|GED ~G3|AGF G2 z||

